lib/brands/logos/capsule-pharmacy.svg

<svg xmlns="http://www.w3.org/2000/svg" fill="none" aria-hidden="true" viewBox="0 0 230 52"><g id="Capsule Pharmacy"><g id="Group"><g id="Group_2"><path id="Vector" fill="#FFD300" d="M28.2384 26.1915L22.633 31.7969V20.1239H13.0049C11.4573 20.1239 9.97309 20.7385 8.87859 21.8326C7.7841 22.9267 7.16893 24.4107 7.16837 25.9583V25.9636C7.16837 26.7301 7.31933 27.489 7.61264 28.1972C7.90596 28.9053 8.33587 29.5487 8.87784 30.0907C9.9724 31.1852 11.4569 31.8001 13.0049 31.8001H22.6298L28.2352 26.1915H28.2384Z"/><path id="Vector_2" fill="#99BFBC" d="M28.2383 26.1916L34.307 20.1229V31.7959H43.9351C45.483 31.7959 46.9676 31.181 48.0621 30.0864C49.1567 28.9919 49.7716 27.5073 49.7716 25.9594C49.7716 24.4114 49.1567 22.9269 48.0621 21.8324C46.9676 20.7378 45.483 20.1229 43.9351 20.1229H34.3166L28.2458 26.183L28.2383 26.1916Z"/><path id="Vector_3" fill="#0F3C6C" d="M34.3059 41.425V20.1217L28.2383 26.1893L22.6318 31.7958V41.4154C22.6318 42.9633 23.2468 44.4479 24.3413 45.5424C25.4359 46.637 26.9204 47.2519 28.4683 47.2519C30.0163 47.2519 31.5008 46.637 32.5954 45.5424C33.6899 44.4479 34.3049 42.9633 34.3049 41.4154L34.3059 41.425Z"/><path id="Vector_4" fill="#EF4931" d="M28.2382 26.1915L34.3069 20.1228V10.4958C34.3069 8.94786 33.692 7.46332 32.5975 6.36876C31.5029 5.2742 30.0184 4.65929 28.4704 4.65929C26.9225 4.65929 25.4379 5.2742 24.3434 6.36876C23.2488 7.46332 22.6339 8.94786 22.6339 10.4958V31.799L28.2468 26.1937L28.2382 26.1915Z"/></g><path id="Vector_5" fill="#0F3C6C" d="M168.84 15.9574H165.577C165.502 15.9574 165.429 15.9875 165.376 16.041C165.322 16.0946 165.292 16.1672 165.292 16.2429V28.9064C165.292 33.4435 168.245 36.3745 172.814 36.3745C177.401 36.3745 180.366 33.4435 180.366 28.9085V16.2418C180.366 16.2041 180.358 16.1668 180.344 16.1321C180.329 16.0973 180.308 16.0657 180.281 16.0392C180.255 16.0127 180.223 15.9917 180.188 15.9775C180.153 15.9633 180.116 15.9561 180.078 15.9564H176.789C176.714 15.9564 176.641 15.9864 176.587 16.04C176.534 16.0935 176.504 16.1661 176.504 16.2418V28.7136C176.504 31.2697 175.194 32.6777 172.814 32.6777C170.471 32.6777 169.125 31.2335 169.125 28.7157V16.2418C169.125 16.1661 169.095 16.0935 169.042 16.04C168.988 15.9864 168.915 15.9564 168.84 15.9564V15.9574ZM222.546 15.9574H210.541C210.503 15.9571 210.466 15.9643 210.431 15.9785C210.396 15.9928 210.364 16.0137 210.338 16.0403C210.311 16.0668 210.29 16.0984 210.275 16.1331C210.261 16.1679 210.253 16.2052 210.253 16.2429V35.6801C210.253 35.8367 210.381 35.9645 210.541 35.9645H222.546C222.704 35.9645 222.832 35.8367 222.832 35.6791V32.6085C222.832 32.5328 222.802 32.4602 222.748 32.4067C222.694 32.3531 222.622 32.3231 222.546 32.3231H214.114V27.7391H221.724C221.882 27.7391 222.009 27.6113 222.009 27.4547V24.4672C222.009 24.3915 221.979 24.3189 221.926 24.2654C221.872 24.2119 221.8 24.1818 221.724 24.1818H214.114V19.5999H222.546C222.704 19.5999 222.832 19.4721 222.832 19.3145V16.2439C222.832 16.0842 222.704 15.9564 222.546 15.9564V15.9574ZM150.088 32.8428C147.272 32.8428 146.089 30.8852 145.93 29.2088C145.926 29.1671 145.913 29.1267 145.892 29.0906C145.871 29.0545 145.841 29.0236 145.807 29.0001C145.772 28.9766 145.733 28.9609 145.691 28.9541C145.65 28.9473 145.608 28.9495 145.567 28.9607L142.497 29.8383C142.431 29.8572 142.375 29.8986 142.337 29.9551C142.3 30.0117 142.283 30.0797 142.291 30.1472C142.621 33.2465 145.158 36.3777 150.079 36.3777C154.783 36.3777 157.247 33.2678 157.247 30.2004C157.247 27.214 155.191 25.0136 151.754 24.332L148.964 23.7568C147.64 23.4693 146.911 22.6811 146.911 21.5415C146.911 20.1324 148.255 19.0301 149.97 19.0301C152.251 19.0301 153.296 20.5105 153.499 21.778C153.505 21.8183 153.521 21.8568 153.543 21.8908C153.566 21.9248 153.596 21.9536 153.631 21.9752C153.665 21.9967 153.704 22.0106 153.745 22.0159C153.786 22.0212 153.827 22.0178 153.866 22.0059L156.827 21.075C156.965 21.0324 157.051 20.8876 157.019 20.7449C156.774 19.5254 155.536 15.5527 149.943 15.5527C146.144 15.5527 143.053 18.3495 143.053 21.7865C143.053 24.7175 144.982 26.8615 148.214 27.5197L150.954 28.0948C152.443 28.4143 153.332 29.2941 153.332 30.4486C153.332 31.929 152.088 32.8492 150.084 32.8492L150.088 32.8428ZM193.284 15.9574H189.993C189.917 15.9577 189.845 15.9879 189.792 16.0414C189.738 16.0949 189.708 16.1673 189.708 16.2429V35.6801C189.708 35.8367 189.836 35.9645 189.994 35.9645H202.193C202.351 35.9645 202.478 35.8367 202.478 35.6791V32.5531C202.478 32.4774 202.448 32.4048 202.395 32.3513C202.341 32.2978 202.269 32.2677 202.193 32.2677H193.569V16.2429C193.569 16.1672 193.539 16.0946 193.486 16.041C193.432 15.9875 193.359 15.9574 193.284 15.9574ZM80.1961 19.2144C82.9823 19.2144 84.9388 20.6841 85.564 23.2456C85.5737 23.2837 85.5912 23.3194 85.6152 23.3505C85.6393 23.3816 85.6695 23.4074 85.7039 23.4263C85.7384 23.4453 85.7763 23.457 85.8155 23.4607C85.8546 23.4645 85.8941 23.4601 85.9315 23.448L89.0308 22.4149C89.0987 22.3916 89.1554 22.3437 89.1896 22.2805C89.2237 22.2173 89.2328 22.1436 89.215 22.074C87.9742 17.2653 83.7406 15.5527 80.194 15.5527C77.5559 15.5527 75.0753 16.54 73.2115 18.3304C71.1879 20.273 70.1143 22.9186 70.1143 25.9839C70.1143 32.8109 75.1946 36.3852 80.2132 36.3852C85.6024 36.3852 88.4695 32.8002 89.2875 29.7286C89.3057 29.6583 89.2965 29.5837 89.2616 29.52C89.2268 29.4563 89.169 29.4082 89.1 29.3856L86.0859 28.3983C86.0495 28.3869 86.0113 28.3827 85.9733 28.3862C85.9353 28.3896 85.8984 28.4006 85.8647 28.4184C85.831 28.4362 85.8012 28.4606 85.777 28.4901C85.7528 28.5195 85.7347 28.5535 85.7238 28.5901C85.4362 29.5443 84.1901 32.6618 80.211 32.6618C77.2449 32.6618 74.055 30.57 74.055 25.9839C74.055 21.3402 77.2332 19.2229 80.1855 19.2229L80.1961 19.2144ZM98.742 35.9634C98.8623 35.9634 98.9699 35.8889 99.0104 35.777L100.751 31.0844H108.579L110.347 35.7813C110.366 35.837 110.401 35.8855 110.449 35.9198C110.497 35.9542 110.554 35.9728 110.613 35.973H114.21C114.261 35.9731 114.311 35.9594 114.356 35.9333C114.4 35.9072 114.436 35.8696 114.461 35.8246C114.485 35.7796 114.497 35.7287 114.496 35.6775C114.494 35.6262 114.478 35.5763 114.45 35.5332L106.899 16.1491C106.879 16.0953 106.842 16.0489 106.795 16.0162C106.747 15.9835 106.691 15.966 106.633 15.9659H102.82C102.763 15.9661 102.707 15.9834 102.659 16.0157C102.612 16.048 102.575 16.0937 102.554 16.147L94.9919 35.5811C94.9752 35.6245 94.9693 35.6713 94.9746 35.7175C94.9799 35.7637 94.9964 35.8079 95.0226 35.8463C95.0488 35.8847 95.0839 35.9162 95.1249 35.9381C95.1659 35.96 95.2117 35.9716 95.2582 35.972H98.7409L98.742 35.9634ZM104.664 20.6245L107.214 27.4707H102.116L104.665 20.6245H104.664ZM125.43 35.9634C125.588 35.9634 125.716 35.8356 125.716 35.678V28.3717H129.35C133.166 28.3717 135.83 25.8188 135.83 22.1624C135.83 18.5093 133.166 15.9564 129.35 15.9564H122.139C122.064 15.9566 121.991 15.9868 121.938 16.0403C121.885 16.0938 121.855 16.1663 121.855 16.2418V35.6791C121.855 35.8356 121.983 35.9634 122.142 35.9634H125.433H125.43ZM125.716 19.4338H128.857C130.772 19.4338 131.914 20.4647 131.914 22.1923C131.914 23.8836 130.772 24.8932 128.857 24.8932H125.716V19.4338Z"/></g></g></svg>

<svg xmlns="http://www.w3.org/2000/svg" fill="none" aria-hidden="true" viewBox="0 0 230 52"><path fill="#FFD300" d="m28.238 26.192-5.605 5.605V20.124h-9.628a5.836 5.836 0 0 0-5.837 5.834v.006a5.836 5.836 0 0 0 5.837 5.836h9.625l5.605-5.608h.003Z"/><path fill="#99BFBC" d="m28.238 26.192 6.069-6.07v11.674h9.628a5.836 5.836 0 1 0 0-11.673h-9.618l-6.071 6.06-.008.009Z"/><path fill="#0F3C6C" d="M34.306 41.425V20.122l-6.068 6.067-5.606 5.607v9.62a5.837 5.837 0 0 0 11.673 0v.009Z"/><path fill="#EF4931" d="m28.238 26.192 6.069-6.07v-9.626a5.837 5.837 0 1 0-11.673 0v21.303l5.613-5.605-.009-.002Z"/><path fill="#0F3C6C" d="M168.84 15.957h-3.263a.284.284 0 0 0-.285.286v12.663c0 4.538 2.953 7.468 7.522 7.468 4.587 0 7.552-2.93 7.552-7.466V16.242a.29.29 0 0 0-.288-.286h-3.289a.288.288 0 0 0-.202.084.287.287 0 0 0-.083.202v12.472c0 2.556-1.31 3.964-3.69 3.964-2.343 0-3.689-1.444-3.689-3.962V16.242a.287.287 0 0 0-.083-.202.288.288 0 0 0-.202-.084v.001Zm53.706 0h-12.005a.285.285 0 0 0-.288.286V35.68c0 .157.128.285.288.285h12.005a.286.286 0 0 0 .286-.286v-3.07a.284.284 0 0 0-.286-.286h-8.432V27.74h7.61a.285.285 0 0 0 .285-.284v-2.988a.286.286 0 0 0-.285-.285h-7.61V19.6h8.432a.286.286 0 0 0 .286-.286v-3.07a.286.286 0 0 0-.286-.288v.001Zm-72.458 16.886c-2.816 0-3.999-1.958-4.158-3.634a.287.287 0 0 0-.363-.248l-3.07.877a.288.288 0 0 0-.206.31c.33 3.098 2.867 6.23 7.788 6.23 4.704 0 7.168-3.11 7.168-6.178 0-2.986-2.056-5.186-5.493-5.868l-2.79-.575c-1.324-.288-2.053-1.076-2.053-2.216 0-1.409 1.344-2.51 3.059-2.51 2.281 0 3.326 1.48 3.529 2.747a.287.287 0 0 0 .367.228l2.961-.931a.283.283 0 0 0 .192-.33c-.245-1.22-1.483-5.192-7.076-5.192-3.799 0-6.89 2.796-6.89 6.233 0 2.931 1.929 5.075 5.161 5.734l2.74.575c1.489.32 2.378 1.199 2.378 2.354 0 1.48-1.244 2.4-3.248 2.4l.004-.006Zm43.196-16.886h-3.291a.284.284 0 0 0-.201.084.283.283 0 0 0-.084.202V35.68c0 .157.128.285.286.285h12.199a.285.285 0 0 0 .285-.286v-3.126a.286.286 0 0 0-.285-.285h-8.624V16.243a.287.287 0 0 0-.083-.202.288.288 0 0 0-.202-.084ZM80.196 19.214c2.786 0 4.743 1.47 5.368 4.032a.288.288 0 0 0 .368.202l3.099-1.033a.285.285 0 0 0 .184-.341c-1.24-4.809-5.474-6.521-9.021-6.521-2.638 0-5.119.987-6.983 2.777-2.023 1.943-3.097 4.589-3.097 7.654 0 6.827 5.08 10.401 10.1 10.401 5.388 0 8.255-3.585 9.073-6.656a.285.285 0 0 0-.187-.343l-3.014-.988a.288.288 0 0 0-.362.192c-.288.954-1.534 4.072-5.513 4.072-2.966 0-6.156-2.092-6.156-6.678 0-4.644 3.178-6.761 6.13-6.761l.011-.009Zm18.546 16.75c.12 0 .228-.075.268-.187l1.741-4.693h7.828l1.768 4.697a.28.28 0 0 0 .266.192h3.597a.29.29 0 0 0 .251-.148.286.286 0 0 0-.011-.291l-7.551-19.385a.283.283 0 0 0-.266-.183h-3.813a.29.29 0 0 0-.266.181l-7.562 19.434a.288.288 0 0 0 .266.39h3.483l.001-.008Zm5.922-15.34 2.55 6.847h-5.098l2.549-6.846h-.001Zm20.766 15.34a.286.286 0 0 0 .286-.286v-7.306h3.634c3.816 0 6.48-2.553 6.48-6.21 0-3.653-2.664-6.206-6.48-6.206h-7.211a.286.286 0 0 0-.284.286v19.437c0 .157.128.284.287.284h3.291-.003Zm.286-16.53h3.141c1.915 0 3.057 1.03 3.057 2.758 0 1.692-1.142 2.701-3.057 2.701h-3.141v-5.46Z"/></svg>
